!!!ONB: MCCC : ILB0183_01 : Extracted Monophonic Melody
!!!COM: Beethoven, Ludwig van
!!!OPR: Piano Sonata No.22
!!!OMV: 1
!!!SCT: Op.54
!!!ODT: 1804///
**kern
*thru
*staff1
*Ipiano
*clefF4
*k[b-]
*F:
*M3/4
*MM118
8.C
16E
=1
2F
8.c
16e
=2
2f
8.cc
16ff
=3
[4aa
8.aa]
16ff
8.gg
16ee
=4
4ff
4r
8.C
16E
=5
2F
8.c
16e
=6
2f
8.cc
16ff
=7
[4aa
8.aa]
16ff
8.gg
16ee
=8
4ff
4r
8.F
16A
=9
4c#
4d[
8.d]
16B
=10
8.c
16A
8F
8r
8.f
16a
=11
4cc#
4dd[
8.dd]
16b
=12
8.cc
16a
8f
8r
8.ff
16aa
=13
4ccc#
4ddd[
8.ddd]
16bb
=14
8.ccc
16aa
4bb-[
8.bb-]
16gg
=15
8.aa
16ff
4gg[
8.gg]
16dd
=16
8.ee
16gg
8ff
8r
8.F
16A
=17
4c#
4d[
8.d]
16B
=18
8.c
16A
8F
8r
8.f
16a
=19
4cc#
4dd[
8.dd]
16b
=20
8.cc
16a
8f
8r
8.ff
16aa
=21
4ccc#
4ddd[
8.ddd]
16bb
=22
8.ccc
16aa
4bb-[
8.bb-]
16gg
=23
8.aa
16ff
4gg[
8.gg]
16dd
=24
8.ee
16gg
8ff
8r
4r
=25
4r
4r
12cc
12ccc
12bb
=26
12ccc
12bb-
12aa
12gg
12aa
12bb-
12aa
12gg
12ff
=27
12ee
12ff
12gg
12ff
12ee
12dd
12cc#
12dd
12ee
=28
12dd
12cc
12b-
12a
12g
12f
12e
12cc
12b
=29
12cc
12b-
12a
12g
12a
12b-
12a
12aa
12gg#
=30
12aa
12gg
12ff
12ee
12ff
12gg
12ff
12gg
12aa
=31
12cc#
12dd
12ee
12dd
12ee
12ff
12b
12cc
12dd
=32
12cc
12dd
12ee
12cc#
12dd
12ee
12dd
12ee
12ff
=33
12b
12cc
12dd
12cc
12dd
12ee
12cc
12dd
12ee
=34
12ff
12gg
12aa
12bb
12ccc
12ddd
12eee
12ddd
12ccc
=35
12bb
12ccc
12ddd
12eee
12ddd
12ccc
12bb
12ccc
12ddd
=36
12eee
12ddd
12ccc
12eee
12ddd
12ccc
12eee
12ddd
12ccc
=37
12bb
12aa
12gg
12ff
12ee
12dd
12cc
12dd
12b
=38
12cc
12D
12BB-
8C
8r
4r
=39
4r
4r
12ee-
12eee-
12ddd
=40
12eee-
12ddd-
12ccc
12bb-
12ccc
12ddd-
12ccc
12bb-
12aa-
=41
12gg
12aa-
12bb-
12aa-
12gg
12ff
12ee-
12ff
12gg
=42
12ff
12ee-
12dd-
12cc
12b-
12a-
12g
12ee-
12dd
=43
12ee-
12dd-
12cc
12b-
12cc
12dd-
12cc
12ccc
12bb
=44
12ccc
12bb-
12aa-
12gg
12aa-
12bb-
12aa-
12bb-
12ccc
=45
12ee
12ff
12gg
12ff
12gg
12aa-
12cc
12dd-
12ee-
=46
12dd-
12ee-
12ff
12a
12b-
12cc
12b-
12cc
12dd-
=47
12g
12a-
12b-
12a-
12b-
12cc
12a
12b-
12cc
=48
12b-
12cc
12dd
12g
12a-
12b-
12a-
12b-
12cc
=49
12g
12a-
12b-
12a-
12b-
12cc
12a-
12b-
12cc
=50
12dd-
12ee-
12ff
12gg
12aa-
12bb-
12ccc
12bb-
12aa-
=51
12gg
12aa-
12bb-
12ccc
12bb-
12aa-
12gg
12aa-
12bb-
=52
12ccc
12bb-
12aa-
12ccc
12bb-
12aa-
12ccc
12bb-
12aa-
=53
12gg
12ff
12ee-
12dd-
12cc
12b-
12a-
12b-
12g
=54
12a-
12BB-
12GG
12AA-
12ff
12gg
12aa-
12gg
12ff
=55
12ee-
12dd-
12cc
12b-
12a-
12g
12f
12g
12e
=56
12f
12GG
12EE
12FF
12dd-
12ee-
12ff
12ee-
12dd-
=57
12cc
12b-
12a-
12g-
12f
12e-
12d-
12e-
12c
=58
8d-
8r
4r
4r
=59
4f
4r
4r
=60
4b-
4r
4r
=61
4b
4r
4r
=62
12cc
12d-
12B
12c
12dd-
12b
12cc
12ddd-
12bb
=63
12ccc
12ddd-
12bb
12ccc
12ddd-
12bb
12ccc
12ddd-
12bb
=64
4ccc
4r
12ccc
12ddd-
12bb
=65
4ccc
4r
12ccc
12ddd-
12bb
=66
4ccc
4r
4r
=67
2.r
=68
2.r
=69
4r
4r
8.C
16E
=70
2F
8.c
16e
=71
2f
8.cc
16ff
=72
[4aa
8.aa]
16ff
8.gg
16ee
=73
4ff
4r
16C
16BB
16C
16E
=74
8G
4.F
16c
16B-
16c
16e
=75
8g
4.f
16cc
16b
16cc
16ff
=76
[4aa
16aa]
16gg#
16aa
16ff
16gg
16ff#
16gg
16ee
=77
4ff
4r
8.F
16A
=78
4c#
4d[
8.d]
16B
=79
8.c
16A
8F
8r
8.f
16a
=80
4cc#
4dd[
8.dd]
16b-
=81
8.cc
16a
8f
8r
8.ff
16aa
=82
4ccc#
4ddd[
8.ddd]
16bb
=83
8.ccc
16aa
4bb-[
8.bb-]
16gg
=84
8.aa
16ff
4gg[
8.gg]
16dd
=85
8.ee
16gg
8ff
8r
4r
=86
8c#
4d
8d[
16d]
16c#
16d
16B
=87
16c
16B
16c
16A
16F
16e
16f
16e
16f
16e
16f
16a
=88
16cc#
8dd
8dd
8dd
16dd[
16dd]
16cc#
16dd
16b
=89
16cc
16b
16cc
16a
16f
16ee
16ff
16ee
16ff
16ee
16ff
16aa
=90
16ccc#
8ddd
8ddd
8ddd
16ddd
16ddd
16ccc#
16ddd
16bb
=91
16ccc
16bb
16ccc
16aa
16bb-
8bb-
16bb-
16bb-
16aa
16bb-
16gg#
=92
16aa
16gg#
16aa
16ff
16gg
8gg
16gg
16gg
16ff#
16gg
16dd
=93
16ee
16dd
16ee
16gg
8ff
8r
4r
=94
4r
4r
12cc
12ccc
12bb
=95
12ccc
12bb-
12aa
12gg
12aa
12bb-
12aa
12gg
12ff
=96
12ee
12ff
12gg
12ff
12ee
12dd
12cc#
12dd
12ee
=97
12dd
12cc
12b-
12a
12g
12f
12e
12f
12d
=98
12c
12d
12e
12f
12g
12e
12d
12e
12f
=99
12g
12a
12f
12e
12f
12g
12a
12b-
12g
=100
12f
12g
12a
12b-
12cc
12dd
12ee
12ff
12gg
=101
12aa
12bb-
12bb-
12bb-
12bb-
12bb-
12bb-
12bb-
12bb-
=102
12bb-
12bb-
12bb-
12bb-
12bb-
12bb-
12bb-
12bb-
12bb-
=103
2.bb-
=104
4r
12c
12c
12c
12c
12c
12c
=105
2c
8.C
16E
=106
2F
8.c
16e
=107
2f
8.cc
16ff
=108
[4aa
8.aa]
16ff
8.gg
16ee
=109
4ff
4r
16C
16BB
16C
16E
=110
16G
16F
16E
16F[
4F]
16c
16B
16c
16e
=111
16g
16f
16e
16f[
4f]
16cc
16b
16cc
16ff
=112
[4aa
16aa]
16gg
16aa
16ff
16gg
16ff#
16gg
16ee
=113
4ff
4r
8.F
16A
=114
4c#
4d[
8.d]
16B
=115
8.c
16A
8F
8r
16f
16e
16f
16a
=116
8cc#
4dd
8dd[
16dd]
16cc#
16dd
16b
=117
16cc
16b
16cc
16a
8f
8r
16ff
16ee
16ff
16aa
=118
16ccc#
16ddd
16ddd
16ddd
16ddd
16ddd
16ddd
16ddd
16ddd
16ccc#
16ddd
16bb
=119
16ccc
16bb
16ccc
16aa
16bb-
16bb-
16bb-
16bb-
16bb-
16aa
16bb-
16gg#
=120
16aa
16gg#
16aa
16ff
16gg
16gg
16gg
16gg
16gg
16ff#
16gg
16dd
=121
16ee
16dd#
16ee
16gg
8ff
8r
32F
32G
32F
32E
40F
40G
40A
40B-
40c
=122
16c#
16d
16d
16d
16d
16d
16d
16d
16d
16c#
16d
16B
=123
16c
16B
16c
16A
24F
24G
24A
24B-
24c
24d
24e
24f
24g
24a
24b-
24cc
=124
24cc#
24dd
24cc#
24dd
24cc#
24dd
24cc#
24dd
24cc#
32dd
32cc#
32dd
32cc#
24dd
24ee
24dd
24cc#
24dd
24b
=125
24cc
24dd
24cc
24b
24cc
24a
24f
24g
24a
24b-
24cc
24dd
24ee
24ff
24gg
24aa
24bb-
24ccc
=126
24ccc#
24ddd
24ccc#
24ddd
24ccc#
24ddd
24ccc#
24ddd
24ccc#
32ddd
32ccc#
32ddd
32ccc#
24ddd
24eee
24ddd
24ccc#
24ddd
24bb
=127
24ccc
24ddd
24ccc
24bb
24ccc
24aa
24bb-
24aa
24bb-
24aa
24bb-
24aa
24bb-
24ccc
24bb-
24aa
24bb-
24gg#
=128
24aa
24bb-
24aa
24gg#
24aa
24ff
24gg
24aa
24gg
24ff#
24gg
24dd
24ee
24ff
24ee
24dd
24ee
24gg
=129
24ff
24gg
24ff
24ee
24ff
24ee
24dd
24ee
24dd
24cc#
24dd
24ff
24ee
24ff
24ee
24dd
24ee
24dd
=130
24cc
24dd
24cc
24b
24cc
24ee
24dd
24ee
24dd
24cc
24dd
24cc
24b-
24cc
24b-
24a
24b-
24dd
=131
24cc
24dd
24cc
24b-
24cc
24b-
24a
24b-
24cc
24b-
24a
24g
24f
24g
24a
24g
24f
24e
=132
8d
8g
8b-
8dd
8gg
8bb-
=133
2.ddd
=134
2.e
=135
2.cc[
=136
4cc]
4r
8.c
16f
=137
[4a
8.a]
16f
8.g
16e
=138
4f
8c
8r
8.f
16a
=139
[4cc
8.cc]
16dd
8.b-
16cc
=140
4a
4r
16c
16B
16c
16f
=141
16a
16g#
16a
16g#
16a
16g#
16a
16f
16g
16f#
16g
16e
=142
16f
16e
16f
16a
8c
8r
16f
16e
16f
16a
=143
16cc
16dd
16cc
16dd
16cc
16dd
16cc
16dd
16b-
16cc
16b-
16cc
=144
4a
4r
8.c
16f
=145
2a
8.f
16a
=146
2cc
8.a
16cc
=147
4.ff
8aa
8ccc
8fff
=148
12eee
12eee
12eee
12eee
12eee
12eee
12eee
12eee
12eee
=149
8eee
8eee
8eee
8eee
8eee
8eee
=150
8eee
8eee
8eee
8eee
8eee
8eee
=151
4fff
4r
4cc
=152
4a
4r
4r
=153
2.r
=154
2r
==
*-
